X:10507
T:Mazurca di Ivano
C:Valla/Guiglelimetti
M:3/4
L:1/8
K:C
AB|c2B2A2|ef e4|c2B2A2|a6|\
a2g2f2|ef/e/d4|f2e2d2|de/d/ c4|
c2B2A2|ef e4|c2B2A2|a6|\
a2g2f2|ef/e/d4|ef ed cB|AB A2:|
|:AB|cB cB cd|c4 BA|ed ed ef|e6|\
e2 fe dc|ed B4|d2 ed cB|dc A2AB|
cB cB cd|c4 BA|ed ed ef|e6|\
e2 fe dc|ed B4|ef ed cB|ABA2:|
